X:846
T:Padraig O'Keefe's 1
T:The bank of turf
R:Slide
O:Ireland
B:Ceol Rince 3 n56
S:Henrik Norbeck's abc files ?
Z:Transcription:Henrik Norbeck(?), chords:Mike Long
M:12/8
L:1/8
K:D
"D"ABA DFA "G"BAF "D"DFA|"D"~d3 "A"ede "D"fef def|\
"G"~g3 gab "D"afd Bcd|[1 "A"e2A efd cBA "G"Bcd:|
[2 "A"ABd efe "D"~d3 dcd\
|:"A"e2A efg "D"f2d fga|"G"gfe "D"fed "A"edB ABd|
"A"e2A efg "D"f2d fga| [1 "G"gfe dcB "A"~A3 ABd:|\
[2 "G"gfe dcB "A"AFA Bcd|]
